ePapirus/22x22/panel/input-touchpad-on.svg

<?xml version="1.0" encoding="UTF-8" standalone="no"?>
<svg xmlns="http://www.w3.org/2000/svg" height="22" width="22" version="1.1">
 <defs>
  <style type="text/css" id="current-color-scheme">
   .ColorScheme-Text { color:#6e6e6e; } .ColorScheme-Highlight { color:#5294e2; } .ColorScheme-ButtonBackground { color:#ffffff; }
  </style>
 </defs>
 <path d="m3.1992 3c-1.2 0-1.1992 1.2305-1.1992 1.2305v13.539s-.0008 1.23 1.1992 1.23h15.602s1.1992.0003 1.1992-1.2305v-13.539c0-1.2313-1.199-1.231-1.199-1.231h-15.602zm12.801 2h2v1h-2v-1zm0 2h2v1h-2v-1zm0 2h2v1h-2v-1zm0 2h2v1h-2v-1zm-12 3h6v3h-6v-3zm8 0h6v3h-6v-3z" class="ColorScheme-ButtonBackground" fill="currentColor"/>
</svg>

<svg xmlns="http://www.w3.org/2000/svg" width="22" height="22" version="1.1">
 <defs>
  <style id="current-color-scheme" type="text/css">
   .ColorScheme-Text { color:#6e6e6e; } .ColorScheme-Highlight { color:#5294e2; } .ColorScheme-ButtonBackground { color:#ffffff; }
  </style>
 </defs>
 <path style="fill:currentColor" class="ColorScheme-ButtonBackground" d="M 3,3 C 2.446,3 2,3.446 2,4 V 18 C 2,18.554 2.446,19 3,19 H 19 C 19.554,19 20,18.554 20,18 V 4 C 20,3.446 19.554,3 19,3 Z M 16,5 H 18 V 6 H 16 Z M 16,7 H 18 V 8 H 16 Z M 16,9 H 18 V 10 H 16 Z M 16,11 H 18 V 12 H 16 Z M 4,14 H 10 V 17 H 4 Z M 12,14 H 18 V 17 H 12 Z"/>
</svg>
